X:1
T: Wallop the Spot
C:
R:Jig
Q:180
K:D
M:6/8
L:1/16
|:d4B2 c2A2F2|F2E2F2 d2A2F2|d4B2 c2A2F2|B4d2 A2F2D2|d4B2 c2A2F2|F2E2F2 d2A2F2|d2f2d2 c2e2c2|B4d2 A2F2E2:|
|:c4d2 e2c2A2|e2a2f2 e2c2A2|c4d2 e2c2A2|B4F2 A2F2E2|c4d2 e2c2A2|e2a2f2 e2f2^g2|a2g2f2 e2c2A2|B4F2 A2F2E2:|
|:D2F2A2 d2f2d2|d2f2d2 d2A2F2|D2F2A2 d2A2F2|B4d2 A2F2E2|D2F2A2 d2f2d2|d2f2d2 d4g2|fga2f2 d4A2|B4d2 A2F2E2:|
|:F4E2 D4D2|D2E2D2 D4E2|F2E2F2 D2F2A2|B4d2 A2F2E2|F4E2 D4D2|D2E2D2 D4c2|d2c2B2 c2B2A2|B4d2 A2F2E2:|
